elusive/dribbble.svg

<?xml version="1.0" encoding="UTF-8" standalone="no"?>
<!-- Generator: IcoMoon.io -->

<svg
   xmlns:dc="http://purl.org/dc/elements/1.1/"
   xmlns:cc="http://creativecommons.org/ns#"
   xmlns:rdf="http://www.w3.org/1999/02/22-rdf-syntax-ns#"
   xmlns:svg="http://www.w3.org/2000/svg"
   xmlns="http://www.w3.org/2000/svg"
   xmlns:sodipodi="http://sodipodi.sourceforge.net/DTD/sodipodi-0.dtd"
   xmlns:inkscape="http://www.inkscape.org/namespaces/inkscape"
   id="svg2"
   version="1.1"
   data-tags="remove-circle, cancel, close, remove, delete"
   height="1200"
   width="1200"
   data-du=""
   viewBox="0 0 1200 1200"
   inkscape:version="0.48.4 r9939"
   sodipodi:docname="dribbble.svg">
  <defs
     id="defs32" />
  <sodipodi:namedview
     pagecolor="#ffffff"
     bordercolor="#666666"
     borderopacity="1"
     objecttolerance="10"
     gridtolerance="10"
     guidetolerance="10"
     inkscape:pageopacity="0"
     inkscape:pageshadow="2"
     inkscape:window-width="1535"
     inkscape:window-height="876"
     id="namedview30"
     showgrid="false"
     inkscape:zoom="0.37249375"
     inkscape:cx="584.46638"
     inkscape:cy="521.11126"
     inkscape:window-x="65"
     inkscape:window-y="24"
     inkscape:window-maximized="1"
     inkscape:current-layer="svg2" />
  <metadata
     id="metadata62">
    <rdf:RDF>
      <cc:Work
         rdf:about="">
        <dc:format>image/svg+xml</dc:format>
        <dc:type
           rdf:resource="http://purl.org/dc/dcmitype/StillImage" />
        <dc:title />
      </cc:Work>
    </rdf:RDF>
  </metadata>
  <path
     inkscape:connector-curvature="0"
     d="M 600.00001,-3.4999999e-6 C 268.62915,-3.4999999e-6 2.395e-6,268.62913 2.395e-6,599.99999 2.395e-6,931.37085 268.62915,1200 600.00001,1200 931.37087,1200 1200,931.37085 1200,599.99999 1200,268.62913 931.37087,-3.4999999e-6 600.00001,-3.4999999e-6 z m 0,86.9301554999999 c 130.7182,0 250.01648,48.884288 340.61554,129.369358 C 874.05305,304.10976 772.89211,362.56616 671.58048,402.16569 616.33524,301.12148 548.33203,194.5903 479.10328,101.25374 517.86822,91.891161 558.35884,86.930152 600.00001,86.930152 z M 381.72492,135.56225 C 448.61954,235.58671 513.38181,328.39077 572.64446,433.4346 422.89687,472.2267 253.74985,495.49545 97.492502,495.89648 130.43813,336.01687 237.78704,203.33155 381.72492,135.56225 z M 997.53048,275.60788 C 1069.0898,363.19804 1112.2477,474.87655 1113.0321,596.61842 994.36898,573.24397 876.34477,567.07898 756.15517,579.17929 742.61648,545.48834 726.28125,513.49592 710.60039,478.98936 814.20867,437.20218 924.94383,365.67865 997.53048,275.60788 z M 614.28586,512.80382 c 12.85993,27.33656 27.73383,56.29149 41.67939,85.90429 C 488.86407,672.39115 311.15086,770.88046 218.84508,943.46507 136.84618,852.52568 86.93016,732.09069 86.93016,599.99999 c 0,-5.01633 0.08484,-10.02587 0.228047,-15.00751 178.985863,-0.86859 354.622263,-23.26945 527.127653,-72.18843 z m 497.03644,129.90117 c -0.1649,2.00274 -0.3438,4.00711 -0.532,6.00305 0.1889,-1.9943 0.3659,-4.0022 0.532,-6.00305 z m -225.91166,9.99234 c 74.60367,-0.23226 151.62306,10.1904 221.27646,28.49532 -22.781,143.31022 -104.9142,266.84461 -220.40271,344.64285 C 858.73244,900.57843 832.4836,780.73616 786.09447,659.87812 c 31.99336,-4.76954 65.40538,-7.07532 99.31617,-7.18079 z m 223.93616,9.30844 c -0.3499,2.90437 -0.7036,5.81132 -1.1018,8.7007 0.4001,-2.8964 0.7498,-5.78906 1.1018,-8.7007 z M 691.10977,683.3203 c 47.31867,122.16164 84.45703,257.45766 109.30852,389.1337 -61.57524,26.1558 -129.30024,40.6156 -200.41805,40.6156 -118.66454,0 -227.9011,-40.3013 -314.81766,-107.9407 C 378.0975,854.34467 522.01102,740.29897 691.10953,683.3203 z"
     id="path5866" />
</svg>

<?xml version="1.0" encoding="utf-8"?>
<!-- Generator: Adobe Illustrator 16.0.0, SVG Export Plug-In . SVG Version: 6.00 Build 0)  -->
<!DOCTYPE svg PUBLIC "-//W3C//DTD SVG 1.1//EN" "http://www.w3.org/Graphics/SVG/1.1/DTD/svg11.dtd">
<svg version="1.1"
	 id="svg2" xmlns:dc="http://purl.org/dc/elements/1.1/" xmlns:cc="http://creativecommons.org/ns#" xmlns:rdf="http://www.w3.org/1999/02/22-rdf-syntax-ns#" xmlns:svg="http://www.w3.org/2000/svg" xmlns:sodipodi="http://sodipodi.sourceforge.net/DTD/sodipodi-0.dtd" xmlns:inkscape="http://www.inkscape.org/namespaces/inkscape" sodipodi:docname="dribbble.svg" inkscape:version="0.48.4 r9939"
	 xmlns="http://www.w3.org/2000/svg" xmlns:xlink="http://www.w3.org/1999/xlink" x="0px" y="0px" width="1200px" height="1200px"
	 viewBox="0 0 1200 1200" enable-background="new 0 0 1200 1200" xml:space="preserve">
<sodipodi:namedview  inkscape:cy="521.11126" inkscape:cx="584.46638" inkscape:zoom="0.37249375" showgrid="false" id="namedview30" guidetolerance="10" gridtolerance="10" objecttolerance="10" borderopacity="1" bordercolor="#666666" pagecolor="#ffffff" inkscape:current-layer="svg2" inkscape:window-maximized="1" inkscape:window-y="24" inkscape:window-height="876" inkscape:window-width="1535" inkscape:pageshadow="2" inkscape:pageopacity="0" inkscape:window-x="65">
	</sodipodi:namedview>
<path id="path5866" inkscape:connector-curvature="0" d="M600,0C268.629,0,0,268.629,0,600s268.629,600,600,600s600-268.629,600-600
	S931.371,0,600,0z M600,86.93c130.718,0,250.017,48.884,340.615,129.369C874.053,304.11,772.893,362.566,671.58,402.166
	C616.335,301.122,548.332,194.59,479.104,101.254C517.868,91.891,558.358,86.93,600,86.93z M381.725,135.562
	c66.894,100.024,131.657,192.828,190.919,297.872c-149.748,38.792-318.895,62.061-475.152,62.462
	C130.438,336.017,237.787,203.332,381.725,135.562z M997.53,275.608c71.56,87.59,114.718,199.269,115.502,321.01
	c-118.663-23.374-236.688-29.539-356.877-17.438c-13.539-33.691-29.874-65.684-45.555-100.19
	C814.209,437.202,924.943,365.679,997.53,275.608z M614.286,512.804c12.859,27.337,27.733,56.292,41.679,85.904
	c-167.101,73.684-344.814,172.173-437.12,344.757C136.846,852.525,86.93,732.091,86.93,600c0-5.017,0.085-10.025,0.228-15.008
	C266.144,584.124,441.78,561.723,614.286,512.804L614.286,512.804z M1111.322,642.705c-0.165,2.003-0.344,4.007-0.532,6.003
	C1110.979,646.714,1111.156,644.706,1111.322,642.705z M885.41,652.697c74.604-0.232,151.623,10.19,221.277,28.495
	c-22.781,143.311-104.915,266.845-220.403,344.644c-27.552-125.258-53.801-245.1-100.189-365.958
	C818.088,655.108,851.5,652.803,885.41,652.697L885.41,652.697z M1109.347,662.006c-0.35,2.904-0.704,5.812-1.102,8.7
	C1108.645,667.811,1108.994,664.917,1109.347,662.006z M691.109,683.32c47.319,122.162,84.457,257.458,109.309,389.134
	c-61.575,26.155-129.3,40.615-200.418,40.615c-118.664,0-227.901-40.301-314.817-107.94
	C378.098,854.345,522.011,740.299,691.109,683.32L691.109,683.32z"/>
</svg>
